X:1
T:Watts's Cradle Song
M:C
L:1/8
S:Elizabeth Poston, The Second Penguin Book of Christmas Carols (1970, p. 43)
N:Tennessee, arr. E.P.
K:G
E2G2E2D2|G2G2(ED)B,2|D3ED2B,2|G2A2B4|
w:Hush! my dear, lie still and slum - ber; Ho-ly an-gels guard thy bed!
B2d2(BA)G2|A2 (BA) (GE) D2|E3FG2B,2|B,2D2E4|]
w:Heaven-ly bless - ings with-out_ num - ber Gent-ly fall-ing on thy head.